X:1
T:Byefield, CM
T:Byefield, CM
T:Thomas Hastings, 1840
T:Public Domain Courtesy of the Cyber Hymnal™
C:Thomas Hastings, 1840
Z:Public Domain
Z:Courtesy of the Cyber Hymnal™
%%score ( 1 2 ) ( 3 4 )
L:1/8
Q:1/4=95
M:3/4
K:F
V:1 treble 
V:2 treble 
V:3 bass 
V:4 bass 
V:1
 [FA]2 | [FA]>[FA] [FA][FA] [GB][GB] | [FA]4 [EG]2 | [DF][DF] [EG]2 [FA]2 | [EG]4 [EG]2 | %5
 [EG]>[EG] [EG][EG] [FA][FA] | [FB]4 [Fc]2 | [Fd][Fd] [CF]2 (G>F) | [CF]4 |] %9
V:2
 x2 | x6 | x6 | x6 | x6 | x6 | x6 | x4 C2 | x4 |] %9
V:3
 [F,C]2 | [F,C]>[F,C] [F,C][F,C] [E,C][E,C] | [F,C]4 [C,B,]2 | [D,A,][D,A,] [C,C]2 [F,C]2 | %4
 [C,C]4 [C,C]2 | [C,C]>[C,C] [C,C][C,C] [F,C][F,C] | [B,,D]4 [A,,C]2 | %7
 [B,,B,][B,,B,] [C,A,]2 (B,>A,) | [F,A,]4 |] %9
V:4
 x2 | x6 | x6 | x6 | x6 | x6 | x6 | x4 C,2 | x4 |] %9

